X: 003
T: Royal Exchange
B: 204 Favourite Country Dances
N: Published by Straight & Skillern, London ca.1775
F: http://imslp.org/wiki/204_Favourite_Country_Dances_(Various) p.2 #3
Z: 2014 John Chambers <jc:trillian.mit.edu>
M: 6/8
L: 1/8
K: G
%  - - - - - - - - - - - - - - - - - - - - - - - - -
|:\
G2A BcB | B2A G2D |\
G2A BdB | AcA G3 :|\
|:\
B2c def | gfe f2A |
d2e faf | eA^c d3 |\
G2A BcB | B2A G2D |\
G2A BdB | AcA G3 :|
%  - - - - - - - - - - - - - - - - - - - - - - - - -
%%begintext align
%% The 1st Man foot it to the 2d Wo. & turn
%% the 1st Wo. do the same to the second Man
%% cross over half figure right & left
%%endtext

%%sep 1 1 500
%%sep 1 1 500
